X:2001
T:Captain McBride's Hornpipe
P:Lady Eliza Lindsay
C:Traditional?
R:Reel (8x32)
B:RSCDS 20-1
Z:Anselm Lingnau <anselm@strathspey.org>
M:C|
L:1/8
K:C
(3G,A,B,|"C"C2C2 c3e|"G7"dcBA "C/E"G3F|"C"E2ec G2ge|"D"dcde "G"G2 (3G,A,B,|
         "C"C2C2 c3e|"G7"dcBA "C/E"G3F|"C"EGEC "G7"DFDB,|"C"C2 "F"C2 "C"C2||
dc|"G"BGBd g2 df|"C"eccB c2 c_B|"F"AFAc f2 Ac|"G"=BGG^F [G2B,2] G=F|
   "C"EccE "Dm"FddF|"Em"GeeG "G7"f2 gf|"C"egec "G7"dfdB|\
                                        "C"[c2G2E2] "F"[c2A2F2] "C"[c2G2E2]|]
